X:8006
T:Horse's Brawl
T:Branle des Chevaux
R:Reel
C:From Arbeau, Orchesographie, 1689
O:France
M:2/2
L:1/8
Q:1/2=80
K:G
"G"G3A B2B2|"C"c2B2A2c2|"G"B2A2G2F2|"C"E4 "D"D4|"G"G3A B2B2|"C"c2B2A2c2|"G"BAG2 "D"G2F2|"G"G4G4:|
|:"G"d2cB A2B2|"C"c2BA G2B2|"G"A2G2F2G2|"D"A4A4|"G"d2cB A2B2|"C"c2BA G2B2|"G"A2G2 "D"G2F2|"G"G4G4:|
|:"Gm"_B2AG B2AG|"D"F2G2A4|"D"D2E2F2G2|"D"A2_B2A2G2|"Gm"_B2AG B2AG|"D"F2G2A4|"D"D2E2F2G2|"D"G2^F2 "Gm"G4:|

